X: 6497
T: Cat On The Mushrooms
R: reel
M: 4/4
K: Gmajor
B2 AG d<G B2|AGED E2 GE|DBAG A3G|AGED EGAc|
B2 AG d<G B2|AGED E2 GE|DBAG A3G|DEGA G4:|
|:A6 GA|B2 AG E2 GE|DBAG DEGD|DEGA EGAc|
A6 GA|B2 AG E2 GE|DBAG DEGD|DEGA G4:|

